X:2277
T:Jacob's ladder
T:(Manx Carol?))
C:T. Crellin, Peel
C:Traditional
O:Isle of Man
Z:Clague collection
B:Kiaull Vannin #277
N:See als KV 154,161,246,248 
M:2/4
L:1/8  
K:G 
D|G2 GG|B2 AG|A2 AA|dcBA|G2 GG|B2 AG|A2 DD|!fermata!D2 Bc| 
d2 de|dB GG|d2 cB | cBAG|d2 BB|cc BA|G2 BG|G3|| 

